X: 15267
T: Girl Who Broke My Heart, The
R: reel
M: 4/4
K: Amixolydian
|:ed|cAGA E~D3|EAAG ABcd|efge dBAG|1 ,3 EGGF G2:|2 ,4 EAAG A2||
|:zE|A2ce aecA|G2Bd gdBG|A2ce aece|dcde dBGB|
A2ce aecA|G2Bd gdBG|ABce dBAG|EAAG A2:|

